X: 10811
M: C|
L: 1/8
K: Eb
u(B/=A>c) |\
f>dB>F D>(f=e>g) | f>dB>F D>(ag>b) | a>fd>B A>FD>A, | G,>B,E>G E> :|
|: "3rd Position"u(ed>f) |\
(e>c')(a>c') (e'>c')(a>c') | (b>a)g>f (e>g)f>e | (d>a)f>d (B>=B)c>d | (e>B)g>f (e>f)d>f |
(e>c')a>c' (e'>c')a>c' | (b>a)g>f (e>g)f>e | (d>a)f>d (B>=B)c>d | e>Bg>f e> :|


